brandFactory_export/1.Light/Disco duro_1Light.svg

<?xml version="1.0" encoding="UTF-8"?>
<svg width="24px" height="24px" viewBox="0 0 24 24" version="1.1" xmlns="http://www.w3.org/2000/svg" xmlns:xlink="http://www.w3.org/1999/xlink">
    <title>1.Light/Disco duro_1Light</title>
    <g id="Symbols" stroke="none" stroke-width="1" fill="none" fill-rule="evenodd">
        <g id="1.Light/Disco-duro_1Light" fill="#5CB615" fill-rule="nonzero">
            <path d="M22.1210084,22.6722689 C22.4067227,22.6722689 22.6386555,22.4403361 22.6386555,22.1512605 L22.6386555,16.3865546 L22.6285714,16.302521 C22.6016807,16.0403361 22.3865546,15.8352941 22.1210084,15.8352941 L1.50252101,15.8352941 C1.21680672,15.8352941 0.981512605,16.0705882 0.981512605,16.3563025 L0.981512605,22.1512605 C0.981512605,22.4369748 1.21344538,22.6722689 1.50252101,22.6722689 L22.1210084,22.6722689 Z M2.9512605,1.5394958 L1.17310924,14.887395 C1.28067227,14.8638655 1.38823529,14.8470588 1.50252101,14.8470588 L22.1210084,14.8470588 C22.2352941,14.8470588 22.3462185,14.8638655 22.4504202,14.887395 L20.7865546,1.66386555 C20.7193277,1.30756303 20.4571429,1.03865546 20.1546218,1.03865546 L3.47226891,1.02181317 C3.18319328,1.01848739 2.9512605,1.25378151 2.9512605,1.5394958 Z M23.6201681,16.3058824 C23.6201681,16.3226891 23.6235294,16.3361345 23.6235294,16.3529412 L23.6235294,22.1512605 C23.6235294,22.9815126 22.9512605,23.6571429 22.1210084,23.6571429 L1.50252101,23.6571429 C0.672268908,23.6571429 0,22.9815126 0,22.1512605 L0,16.3529412 C0,16.3226891 0.00672268908,16.2957983 0.00672268908,16.2689076 C0.00672268908,16.2487395 0,16.2319328 0.00336134454,16.2084034 L1.9697479,1.47226891 C1.96638655,0.705882353 2.63865546,0.0302521008 3.46890756,0.0302521008 L20.1512605,0.0470588235 C20.9378151,0.0470588235 21.5966387,0.648739496 21.7546218,1.50588235 L23.5831933,16.0268908 C23.5966387,16.0806723 23.5966387,16.1378151 23.6033613,16.1915966 L23.6134454,16.2857143 C23.6201681,16.2957983 23.6168067,16.302521 23.6201681,16.3058824 Z M11.8117647,7.05210084 C10.6991597,7.05210084 10.6991597,7.51932773 10.6991597,7.71764706 C10.6991597,7.91596639 10.6991597,8.38655462 11.8117647,8.38655462 C12.9243697,8.38655462 12.9243697,7.91932773 12.9243697,7.71764706 C12.9243697,7.51596639 12.9243697,7.05210084 11.8117647,7.05210084 Z M11.8117647,9.37142857 C9.91932773,9.37142857 9.71764706,8.21512605 9.71764706,7.71764706 C9.71764706,7.22016807 9.92268908,6.06386555 11.8117647,6.06386555 C13.7042017,6.06386555 13.9092437,7.22016807 13.9092437,7.71764706 C13.9092437,8.21512605 13.7042017,9.37142857 11.8117647,9.37142857 Z M19.2403361,20.2890756 C19.8655462,20.2890756 20.1210084,20.0336134 20.1210084,19.4084034 C20.1210084,18.7831933 19.8655462,18.5277311 19.2403361,18.5277311 C18.6084034,18.5277311 18.3630252,18.7764706 18.3630252,19.4084034 C18.3630252,20.0436975 18.6084034,20.2890756 19.2403361,20.2890756 Z M19.2403361,17.5428571 C20.4067227,17.5428571 21.102521,18.2420168 21.102521,19.4084034 C21.102521,20.5781513 20.4067227,21.2739496 19.2403361,21.2739496 C18.0739496,21.2739496 17.3781513,20.5781513 17.3781513,19.4084034 C17.3781513,18.2386555 18.0739496,17.5428571 19.2403361,17.5428571 Z M4.69243697,3.15966387 C4.11428571,3.15966387 3.77478992,2.94789916 3.77478992,2.49747899 C3.77478992,2.04369748 4.11428571,1.83193277 4.69243697,1.83193277 C5.27394958,1.83193277 5.61008403,2.04369748 5.61008403,2.49747899 C5.61008403,2.94453782 5.27394958,3.15966387 4.69243697,3.15966387 Z M18.4638655,3.15966387 C17.8857143,3.15966387 17.5462185,2.94789916 17.5462185,2.49747899 C17.5462185,2.04369748 17.8857143,1.83193277 18.4638655,1.83193277 C19.0453782,1.83193277 19.3815126,2.04369748 19.3815126,2.49747899 C19.3848739,2.94453782 19.0453782,3.15966387 18.4638655,3.15966387 Z M20.4336134,14.0067227 C19.8554622,14.0067227 19.5159664,13.794958 19.5159664,13.3445378 C19.5159664,12.8907563 19.8554622,12.6789916 20.4336134,12.6789916 C21.0151261,12.6789916 21.3512605,12.8907563 21.3512605,13.3445378 C21.3512605,13.794958 21.0117647,14.0067227 20.4336134,14.0067227 Z M3.28403361,12.4436975 C3.11596639,12.5983193 3.02521008,12.7495798 3.03193277,12.8571429 C3.04201681,12.9781513 3.17647059,13.1294118 3.39831933,13.2739496 C3.76806723,13.5159664 4.32941176,13.6941176 4.88403361,13.1865546 C6.12773109,12.0470588 7.56302521,10.2722689 7.46890756,9.82857143 C7.45210084,9.82521008 7.43193277,9.82184874 7.40840336,9.82184874 C6.77647059,9.82521008 4.26554622,11.5462185 3.28403361,12.4436975 Z M6.24201681,9.21344538 C6.24537815,9.22352941 6.24537815,9.23361345 6.24537815,9.24705882 C6.96470588,8.9210084 7.62016807,8.77983193 8.0302521,9.0487395 C8.27563025,9.20672269 8.42352941,9.45882353 8.44705882,9.75798319 C8.47731092,10.1310924 8.28571429,10.5983193 7.99327731,11.0823529 L8.04705882,11.1092437 C8.98823529,11.5596639 10.2554622,11.7882353 11.8117647,11.7882353 C15.6705882,11.7882353 17.6235294,10.4201681 17.6235294,7.7210084 C17.6235294,5.02184874 15.6672269,3.65378151 11.8117647,3.65378151 C7.95630252,3.65378151 6,5.02184874 6,7.7210084 C6,8.27226891 6.08067227,8.77310924 6.24201681,9.21344538 Z M2.86386555,14.1042017 C2.23865546,13.697479 2.07731092,13.2436975 2.05378151,12.9378151 C2.0302521,12.6386555 2.10756303,12.1848739 2.62184874,11.7142857 C2.64537815,11.6941176 4.00336134,10.5109244 5.40168067,9.68739496 C5.36806723,9.64705882 5.33781513,9.60336134 5.31764706,9.55294118 C5.11596639,9.00504202 5.01512605,8.38655462 5.01512605,7.71764706 C5.01512605,5.41176471 6.19495798,2.66218487 11.8117647,2.66218487 C17.4285714,2.66218487 18.6084034,5.41176471 18.6084034,7.71764706 C18.6084034,10.0235294 17.4285714,12.7697479 11.8117647,12.7697479 C10.107563,12.7697479 8.69579832,12.507563 7.62016807,11.9932773 L7.44537815,11.9058824 C7.43865546,11.902521 7.43529412,11.8957983 7.42521008,11.8890756 C6.61848739,12.9243697 5.62016807,13.8487395 5.54957983,13.912605 C5.12605042,14.302521 4.62857143,14.497542 4.1210084,14.497542 C3.70084034,14.5008403 3.27394958,14.3697479 2.86386555,14.1042017 L2.86386555,14.1042017 Z" id="Disco-duro_1Light"></path>
        </g>
    </g>
</svg>

<svg width="24" height="24" viewBox="0 0 24 24" xmlns="http://www.w3.org/2000/svg"><path d="M22.121 22.672a.519.519 0 00.518-.52v-5.765l-.01-.084a.514.514 0 00-.508-.468H1.503a.524.524 0 00-.521.521v5.795c0 .286.231.521.52.521h20.619zM2.951 1.54L1.173 14.887c.108-.023.215-.04.33-.04H22.12c.114 0 .225.017.33.04L20.786 1.664c-.068-.356-.33-.625-.632-.625L3.472 1.022a.517.517 0 00-.52.517zm20.67 14.767c0 .017.003.03.003.047v5.798c0 .83-.673 1.506-1.503 1.506H1.503c-.83 0-1.503-.675-1.503-1.506v-5.798c0-.03.007-.057.007-.084 0-.02-.007-.037-.004-.06L1.97 1.471C1.966.706 2.639.03 3.469.03L20.15.047c.787 0 1.446.602 1.604 1.459l1.828 14.52c.014.055.014.112.02.166l.01.094c.007.01.004.017.007.02zM11.81 7.052c-1.112 0-1.112.467-1.112.666 0 .198 0 .669 1.113.669 1.112 0 1.112-.468 1.112-.67 0-.201 0-.665-1.112-.665zm0 2.32c-1.892 0-2.093-1.157-2.093-1.654 0-.498.205-1.654 2.094-1.654 1.892 0 2.097 1.156 2.097 1.654 0 .497-.205 1.653-2.097 1.653zm7.43 10.917c.625 0 .88-.255.88-.88 0-.626-.255-.881-.88-.881-.633 0-.878.248-.878.88 0 .636.245.881.877.881zm0-2.746c1.166 0 1.862.699 1.862 1.865 0 1.17-.696 1.866-1.863 1.866-1.166 0-1.862-.696-1.862-1.866 0-1.17.696-1.865 1.862-1.865zM4.691 3.16c-.578 0-.917-.212-.917-.663 0-.453.34-.665.917-.665.582 0 .918.212.918.665 0 .448-.336.663-.918.663zm13.772 0c-.578 0-.918-.212-.918-.663 0-.453.34-.665.918-.665.581 0 .918.212.918.665.003.448-.337.663-.918.663zm1.97 10.847c-.579 0-.918-.212-.918-.662 0-.454.34-.666.918-.666.581 0 .917.212.917.666 0 .45-.34.662-.917.662zm-17.15-1.563c-.168.154-.259.306-.252.413.01.121.144.272.366.417.37.242.931.42 1.486-.087 1.244-1.14 2.679-2.915 2.585-3.358a.301.301 0 00-.06-.007c-.633.003-3.143 1.724-4.125 2.622zm2.958-3.23c.003.01.003.02.003.033.72-.326 1.375-.467 1.785-.198.246.158.394.41.417.709.03.373-.161.84-.454 1.324l.054.027c.941.45 2.208.68 3.765.68 3.859 0 5.812-1.369 5.812-4.068 0-2.7-1.957-4.067-5.812-4.067C7.956 3.654 6 5.022 6 7.72c0 .551.08 1.052.242 1.492zm-3.378 4.89c-.625-.407-.787-.86-.81-1.166-.024-.3.054-.753.568-1.224.023-.02 1.381-1.203 2.78-2.027a.504.504 0 01-.084-.134 5.309 5.309 0 01-.303-1.835c0-2.306 1.18-5.056 6.797-5.056s6.796 2.75 6.796 5.056-1.18 5.052-6.796 5.052c-1.704 0-3.116-.262-4.192-.777l-.175-.087c-.006-.003-.01-.01-.02-.017a18.799 18.799 0 01-1.875 2.024c-.424.39-.921.585-1.429.585-.42.003-.847-.128-1.257-.394z" fill="#5CB615" fill-rule="nonzero"/></svg>
